X:1
T: Donnybrook Fair
T: 2nd setting
R:Jig
Q:180
K:G
M:6/8
L:1/16
|:D2|G2D2G2 A2G2A2|B2A2B2 g2d2c2|B2A2B2 G2B2A2|G2E2E2 E4D2|
G2D2G2 A2G2A2|B2A2B2 g2d2c2|B2A2B2 G4B2|A2G2F2 G4:|
|:B2|d2e2f2 g4e2|f2e2d2 e4B2|d2e2d2 d2B2A2|B2e2e2 e4g2|
B2d2g2 d2B2A2|B2d2d2 d4A2|B2A2B2 G4B2|A2G2F2 G4:|
